assets/images/proracun.svg

<svg fill="none" height="73" viewBox="0 0 73 73" width="73" xmlns="http://www.w3.org/2000/svg" xmlns:xlink="http://www.w3.org/1999/xlink"><clipPath id="a"><path d="m0 0h73v73h-73z"/></clipPath><mask id="b" height="73" maskUnits="userSpaceOnUse" width="73" x="0" y="0"><path d="m0 0h73v73h-73z" fill="#fff"/></mask><g clip-path="url(#a)"><g style="mask:url(#b);stroke:#a9a29d;stroke-width:3;stroke-miterlimit:10;stroke-linecap:round;stroke-linejoin:round"><path d="m57.5868 71.5742h-51.99271c-1.90227 0-3.45737-1.5599-3.45737-3.4595v-55.4252c0-1.8996 1.5551-3.45956 3.45737-3.45956h3.96211"/><path d="m20.1486 63.7656h-7.1368c-1.8982 0-3.45321-1.5559-3.45321-3.4595v-55.42125c0-1.90356 1.55501-3.45951 3.45321-3.45951h29.9687l14.6087 12.44776v26.2254m-8.5707 23.6671h-16.0707"/><path d="m57.5892 13.8735h-10.3638c-2.3345 0-4.2449-1.9075-4.2449-4.24352v-8.20423"/><path d="m18.3164 20.0449h30.5057"/><path d="m38.8824 27.2266h9.9397m-30.5057 0h10.5173"/><path d="m18.3164 34.4082h30.5057"/><path d="m28.3692 41.5903h11.7855m-21.8383 0h2.8717"/><path d="m18.3164 48.772h17.5611"/><path d="m18.3164 12.8594h17.5853"/><path d="m56.0222 70.9558c-3.4411-2.0571-6.2401-5.5329-8.3969-9.5581-2.1728-4.0537-3.3522-8.3336-3.3159-12.3711.0161-1.7904.4161-1.9884 1.9023-2.7887l11.3736-6.139 11.3734 6.139c1.4824.8003 1.8822.9983 1.8983 2.7887.0364 4.0375-1.1429 8.3174-3.3158 12.3711-2.1567 4.0252-4.9557 7.501-8.397 9.5581-1.3771.8246-1.7447.8246-3.122 0z"/><path d="m26.5391 63.7661h.0083"/><path d="m53.1445 55.6265 2.8918 2.7119 5.9938-6.1553"/></g></g></svg>

<svg width="73" height="73" viewBox="0 0 73 73" fill="none" xmlns="http://www.w3.org/2000/svg">
<g clip-path="url(#clip0_16_28)">
<mask id="mask0_16_28" style="mask-type:luminance" maskUnits="userSpaceOnUse" x="0" y="0" width="73" height="73">
<path d="M0 0H73V73H0V0Z" fill="white"/>
</mask>
<g mask="url(#mask0_16_28)">
<path d="M57.5868 71.5742H5.59409C3.69182 71.5742 2.13672 70.0143 2.13672 68.1147V12.6895C2.13672 10.7899 3.69182 9.22994 5.59409 9.22994H9.5562" stroke="#A9A29D" stroke-width="3" stroke-miterlimit="10" stroke-linecap="round" stroke-linejoin="round"/>
<path d="M20.1486 63.7656H13.0118C11.1136 63.7656 9.55859 62.2097 9.55859 60.3061V4.88485C9.55859 2.98129 11.1136 1.42534 13.0118 1.42534H42.9805L57.5892 13.8731V40.0985M49.0185 63.7656H32.9478" stroke="#A9A29D" stroke-width="3" stroke-miterlimit="10" stroke-linecap="round" stroke-linejoin="round"/>
<path d="M57.5892 13.8735H47.2254C44.8909 13.8735 42.9805 11.966 42.9805 9.62998V1.42575" stroke="#A9A29D" stroke-width="3" stroke-miterlimit="10" stroke-linecap="round" stroke-linejoin="round"/>
<path d="M18.3164 20.0449H48.8221" stroke="#A9A29D" stroke-width="3" stroke-miterlimit="10" stroke-linecap="round" stroke-linejoin="round"/>
<path d="M38.8824 27.2266H48.8221M18.3164 27.2266H28.8337" stroke="#A9A29D" stroke-width="3" stroke-miterlimit="10" stroke-linecap="round" stroke-linejoin="round"/>
<path d="M18.3164 34.4082H48.8221" stroke="#A9A29D" stroke-width="3" stroke-miterlimit="10" stroke-linecap="round" stroke-linejoin="round"/>
<path d="M28.3692 41.5903H40.1547M18.3164 41.5903H21.1881" stroke="#A9A29D" stroke-width="3" stroke-miterlimit="10" stroke-linecap="round" stroke-linejoin="round"/>
<path d="M18.3164 48.772H35.8775" stroke="#A9A29D" stroke-width="3" stroke-miterlimit="10" stroke-linecap="round" stroke-linejoin="round"/>
<path d="M18.3164 12.8594H35.9017" stroke="#A9A29D" stroke-width="3" stroke-miterlimit="10" stroke-linecap="round" stroke-linejoin="round"/>
<path d="M56.0222 70.9558C52.5811 68.8987 49.7821 65.4229 47.6253 61.3977C45.4525 57.344 44.2731 53.0641 44.3094 49.0266C44.3255 47.2362 44.7255 47.0382 46.2117 46.2379L57.5853 40.0989L68.9587 46.2379C70.4411 47.0382 70.8409 47.2362 70.857 49.0266C70.8934 53.0641 69.7141 57.344 67.5412 61.3977C65.3845 65.4229 62.5855 68.8987 59.1442 70.9558C57.7671 71.7804 57.3995 71.7804 56.0222 70.9558Z" stroke="#A9A29D" stroke-width="3" stroke-miterlimit="10" stroke-linecap="round" stroke-linejoin="round"/>
<path d="M26.5391 63.7661H26.5474" stroke="#A9A29D" stroke-width="3" stroke-miterlimit="10" stroke-linecap="round" stroke-linejoin="round"/>
<path d="M53.1445 55.6265L56.0363 58.3384L62.0301 52.1831" stroke="#A9A29D" stroke-width="3" stroke-miterlimit="10" stroke-linecap="round" stroke-linejoin="round"/>
</g>
</g>
<defs>
<clipPath id="clip0_16_28">
<rect width="73" height="73" fill="white"/>
</clipPath>
</defs>
</svg>
